svgs/sharp-solid/mug-saucer.svg

<svg xmlns="http://www.w3.org/2000/svg" viewBox="0 0 640 512"><!--! Font Awesome Pro 6.4.0 by @fontawesome - https://fontawesome.com License - https://fontawesome.com/license (Commercial License) Copyright 2023 Fonticons, Inc. --><path d="M96 32H448h32 32c70.7 0 128 57.3 128 128s-57.3 128-128 128H480v96H96V32zM480 224h32c35.3 0 64-28.7 64-64s-28.7-64-64-64H480V224zM32 416H544h32v64H544 32 0V416H32z"/></svg>

<svg xmlns="http://www.w3.org/2000/svg" viewBox="0 0 640 512"><!--! Font Awesome Pro 6.6.0 by @fontawesome - https://fontawesome.com License - https://fontawesome.com/license (Commercial License) Copyright 2024 Fonticons, Inc. --><path d="M96 32l352 0 32 0 32 0c70.7 0 128 57.3 128 128s-57.3 128-128 128l-32 0 0 96L96 384 96 32zM480 224l32 0c35.3 0 64-28.7 64-64s-28.7-64-64-64l-32 0 0 128zM32 416l512 0 32 0 0 64-32 0L32 480 0 480l0-64 32 0z"/></svg>
